X: 031
T: Neptunes Verdict
%R: jig
Z: 2014 John Chambers <jc:trillian.mit.edu>
B: Thompson "Twenty four Country Dances for the Year 1805" p.3 #1
F: http://folkopedia.efdss.org/images/2/2a/Thompson_24_1805.PDF 2014-8-13
M: 6/8
L: 1/8
K: C
G |\
c/d/ec cBc | dBG G2G | d/e/fd def | gec c2g |\
a/b/c'a geg | a/b/c'a geg | dfd BGB | ccc c2 :|
| g |\
ega gec | ~f2e ~d2c | ega gec | edd d2g |\
ega gec | f2e d2c | Ggf egf | ecc c2 :|
% - - - - - - - - - - - - - - - - - - - - - - - - -
%%begintext align
%% Change sides back again, hands across
%% back again, lead down the middle up again,
%% right and left.
%%endtext
% - - - - - - - - - - - - - - - - - - - - - - - - -
